X:105
%%topspace -50
T:The Shaalds of Foula 1
M:6/8
L:1/8
K:G
(3D/E/F/ | "G"G2G G2B | "G"edB "D7"A2B | "G"G2G G2A | "G"BAG "C"E2D | 
"G"E/G3/G G2B | "G"edB "D7"A2B | "Em"G2G GAB | "Bm"d3 "D7"d2 :|
|: B | "G"def g2d | "C"edB "D7"A2B | "Em"G2G G2A | "G"BAG "C"E2A | 
"G"def g2d | "C"edB "D7"A2B | "Em"G2G GAB | "Bm"d3 "D7"d2 :|]

